!!!OTL: Der Spielmannssohn Als ich ein kleines Buewelein war,
!!!ARE: Europa, Mitteleuropa, Deutschland / France, Lothringen, Rechicourt
!!!YOR: 3, S. 167
!!    1937 aufgezeichnet
!!!SCT: Q0062
!!!YEM: Copyright 1995, estate of Helmut Schaffrath.
**kern
*ICvox
*Ivox
*M6/4
*k[b-]
*F:
=1
{4cc
4a
4g
2f
8f
8g
=2
4.a
8a
4b-
2cc}
{8f
8cc
=3
4cc
4cc
4cc
4.ff
8gg
8ff
8ee
=4
4.dd
8ff
8cc
8dd
4cc
4r}
{4cc
=5
4.ff
8ee
8ff
8ee
4.dd
8cc
4b-
=6
4b-
4cc
4dd
2cc}
{8f
8a
=7
4.a
8cc
4cc
4cc
4b-
8.a
16b-
=8
2g
4f
2.f}
==
!!!AGN: Ballade, Verfuehrung, Standesunterschied, Strafe, Gnade
!!!ONB: ESAC (Essen Associative Code) Database: BALLADE
!!!AMT: compound duple
!!!AIN: vox
!!!EED: Helmut Schaffrath
!!!EEV: 1.0
*-
